X: 23375
T: Leitrim, The
R: reel
M: 4/4
K: Ddorian
dAA2 dAcA|GEE2 c2Bc|dAA2 dAcA|GECD EDDe|
d3e decA|(3GAG EG cdec|dAA2 DdcA|GECD EDDd||
Adde f2ed|cdeg f3g|fdde fac'a|gecd eddc|
(3ABA de fede|cdef g3c'|aege f2ed|cdec d3e||

